img/icons/icon-4.svg

<svg width="59" height="73" viewBox="0 0 59 73" fill="none" xmlns="http://www.w3.org/2000/svg">
<path fill-rule="evenodd" clip-rule="evenodd" d="M58.34 21.545C57.7735 20.7922 56.8861 20.3496 55.944 20.35H17.274L14.799 12.965H3.058C1.40114 12.965 0.0579987 14.3081 0.0579987 15.965C0.0579987 17.6218 1.40114 18.965 3.058 18.965H10.482L23.982 59.25H49.141C50.7979 59.25 52.141 57.9068 52.141 56.25C52.141 54.5931 50.7979 53.25 49.141 53.25H28.299L26.573 48.101H49.693C51.031 48.1009 52.2074 47.2149 52.577 45.929L58.827 24.179C59.0866 23.2732 58.9063 22.2981 58.34 21.545ZM50.559 31.226H45.749V26.35H51.96L50.559 31.226ZM32.942 26.35V31.225H39.749V26.35H32.942ZM39.749 37.226V42.101H32.942V37.226H39.749ZM26.942 31.225V26.35H19.285L20.919 31.225H26.942ZM22.929 37.226H26.942V42.101H24.563L22.929 37.226ZM45.749 37.226V42.101H47.434L48.835 37.226H45.749Z" fill="white"/>
<path d="M27.406 72.875C30.5988 72.875 33.187 70.2867 33.187 67.094C33.187 63.9012 30.5988 61.313 27.406 61.313C24.2132 61.313 21.625 63.9012 21.625 67.094C21.625 70.2867 24.2132 72.875 27.406 72.875Z" fill="white"/>
<path d="M44.844 72.875C48.0368 72.875 50.625 70.2867 50.625 67.094C50.625 63.9012 48.0368 61.313 44.844 61.313C41.6512 61.313 39.063 63.9012 39.063 67.094C39.063 70.2867 41.6512 72.875 44.844 72.875Z" fill="white"/>
<path d="M29.335 10.699L36.882 16.191C37.3179 16.5092 37.8645 16.6364 38.396 16.5432C38.9276 16.45 39.3984 16.1445 39.7 15.697C40.346 14.761 40.13 13.465 39.22 12.802L36.847 11.076L46.283 5.98599L50.911 18H55.258L49.214 2.30899C49.0071 1.76566 48.5793 1.33568 48.037 1.12599C47.4997 0.920727 46.8995 0.960545 46.394 1.23499L33.146 8.38199L30.124 6.18299C29.2552 5.5491 28.0396 5.72199 27.382 6.57299L18.901 17.371C18.7308 17.5554 18.5938 17.7679 18.496 17.999H23.602L29.335 10.699Z" fill="white"/>
</svg>

<svg width="59" height="73" fill="none" xmlns="http://www.w3.org/2000/svg"><path fill-rule="evenodd" clip-rule="evenodd" d="M58.34 21.55a3 3 0 00-2.4-1.2H17.27l-2.47-7.39H3.06a3 3 0 100 6h7.42l13.5 40.29h25.16a3 3 0 000-6H28.3l-1.73-5.15H49.7a3 3 0 002.89-2.17l6.25-21.75a3 3 0 00-.49-2.63zm-7.78 9.68h-4.81v-4.88h6.21l-1.4 4.88zm-17.62-4.88v4.88h6.8v-4.88h-6.8zm6.8 10.88v4.87h-6.8v-4.87h6.8zm-12.8-6v-4.88h-7.66l1.64 4.88h6.02zm-4.01 6h4.01v4.87h-2.38l-1.63-4.87zm22.82 0v4.87h1.68l1.4-4.87h-3.08z" fill="#fff"/><path d="M27.4 72.88a5.78 5.78 0 100-11.57 5.78 5.78 0 000 11.56zM44.84 72.88a5.78 5.78 0 100-11.57 5.78 5.78 0 000 11.56zM29.34 10.7l7.54 5.5a1.99 1.99 0 002.82-.5c.65-.94.43-2.23-.48-2.9l-2.37-1.72 9.43-5.1L50.91 18h4.35L49.2 2.3c-.2-.53-.63-.96-1.17-1.17a1.97 1.97 0 00-1.65.1L33.15 8.38l-3.03-2.2a1.99 1.99 0 00-2.74.4l-8.48 10.8c-.17.18-.3.39-.4.62h5.1l5.73-7.3z" fill="#fff"/></svg>
